SVG/barcode.svg

<?xml version="1.0" encoding="utf-8"?>
<!-- Generated by IcoMoon.io -->
<!DOCTYPE svg PUBLIC "-//W3C//DTD SVG 1.1//EN" "http://www.w3.org/Graphics/SVG/1.1/DTD/svg11.dtd">
<svg version="1.1" xmlns="http://www.w3.org/2000/svg" xmlns:xlink="http://www.w3.org/1999/xlink" width="14" height="14" viewBox="0 0 14 14">
<path fill="#444444" d="M0.492 12h-0.492v-11h0.492v11zM0.984 11.992h-0.25v-10.992h0.25v10.992zM1.719 11.992h-0.242v-10.992h0.242v10.992zM2.945 11.992h-0.242v-10.992h0.242v10.992zM4.172 11.992h-0.484v-10.992h0.484v10.992zM5.156 11.992h-0.242v-10.992h0.242v10.992zM5.648 11.992h-0.242v-10.992h0.242v10.992zM6.141 11.992h-0.242v-10.992h0.242v10.992zM7.367 11.992h-0.492v-10.992h0.492v10.992zM8.594 11.992h-0.492v-10.992h0.492v10.992zM9.578 11.992h-0.492v-10.992h0.492v10.992zM10.562 11.992h-0.492v-10.992h0.492v10.992zM11.297 11.992h-0.492v-10.992h0.492v10.992zM12.773 11.992h-0.734v-10.992h0.734v10.992zM13.266 11.992h-0.25v-10.992h0.25v10.992zM14 12h-0.492v-11h0.492v11z"></path>
</svg>

<svg xmlns="http://www.w3.org/2000/svg" viewBox="0 0 14 14"><path d="M.492 12H0V1h.492v11zm.492-.008h-.25V1h.25v10.992zm.735 0h-.244V1h.242v10.992zm1.224 0h-.242V1h.242v10.992zm1.227 0h-.483V1h.484v10.992zm.985 0h-.242V1h.242v10.992zm.492 0h-.242V1h.242v10.992zm.493 0H5.9V1h.24v10.992zm1.227 0h-.492V1h.492v10.992zm1.227 0h-.492V1h.492v10.992zm.984 0h-.492V1h.492v10.992zm.984 0h-.492V1h.492v10.992zm.735 0h-.492V1h.492v10.992zm1.476 0h-.734V1h.732v10.992zm.493 0h-.25V1h.25v10.992zM14 12h-.492V1H14v11z" /></svg>
